Sources/FrostedUI/Resources/Icons.xcassets/messagesQuestion20.imageset/messages-question-20.svg

<svg width="20" height="20" viewBox="0 0 20 20" fill="none" xmlns="http://www.w3.org/2000/svg" data-fui-icon="true">
  <path
    d="M16.043 2.375C17.3776 2.375 18.46 3.45729 18.46 4.79199V10.208C18.46 11.5427 17.3776 12.625 16.043 12.625H15.126V13.542C15.1258 14.8765 14.0443 15.9579 12.71 15.958H8.94629L5.36523 17.9473C5.13312 18.076 4.84991 18.073 4.62109 17.9385C4.39231 17.8037 4.25109 17.5575 4.25098 17.292V15.958H3.95996C2.62556 15.9578 1.54314 14.8764 1.54297 13.542V8.125C1.54297 6.79043 2.62544 5.70821 3.95996 5.70801H5.08496V4.79199C5.08496 3.45753 6.16661 2.37537 7.50098 2.375H16.043ZM3.95996 7.20801C3.45387 7.20821 3.04297 7.61886 3.04297 8.125V13.542C3.04314 14.048 3.45397 14.4578 3.95996 14.458H5.00098C5.41508 14.458 5.7508 14.7939 5.75098 15.208V16.0166L8.38672 14.5527C8.49792 14.491 8.62377 14.4581 8.75098 14.458H12.71C13.216 14.4579 13.6258 14.048 13.626 13.542V11.9131C13.6253 11.9005 13.624 11.8878 13.624 11.875C13.624 11.8619 13.6253 11.8489 13.626 11.8359V8.125C13.626 7.61885 13.2161 7.20816 12.71 7.20801H3.95996ZM8.28223 12.3555C8.71247 12.3555 9.06152 12.7045 9.06152 13.1348C9.0612 13.5648 8.71228 13.914 8.28223 13.9141C7.85217 13.914 7.50325 13.5648 7.50293 13.1348C7.50293 12.7045 7.85197 12.3555 8.28223 12.3555ZM8.37012 7.91309C9.3753 7.91343 10.1776 8.73398 10.1777 9.73145C10.1777 10.5502 9.63671 10.9772 9.32617 11.1885L9.20801 11.2793C9.17599 11.308 9.15041 11.3358 9.12988 11.3633C9.09342 11.4123 9.05743 11.4814 9.04004 11.5967C8.97848 12.0062 8.59601 12.2879 8.18652 12.2266C7.77705 12.1649 7.4952 11.7835 7.55664 11.374C7.67098 10.6141 8.11827 10.1958 8.48242 9.94824L8.60449 9.85645C8.63222 9.83239 8.64935 9.81351 8.66016 9.79883C8.66811 9.78797 8.67144 9.78148 8.67285 9.77734C8.67423 9.7731 8.67773 9.75934 8.67773 9.73145C8.67756 9.54901 8.53354 9.41344 8.37012 9.41309C8.2064 9.41309 8.0617 9.54874 8.06152 9.73145C8.06152 10.1455 7.72557 10.4812 7.31152 10.4814C6.89731 10.4814 6.56152 10.1457 6.56152 9.73145C6.5617 8.73381 7.36453 7.91309 8.37012 7.91309ZM7.50098 3.875C6.99503 3.87537 6.58496 4.28596 6.58496 4.79199V5.70801H12.71C14.0444 5.70816 15.126 6.79039 15.126 8.125V11.125H16.043C16.5492 11.125 16.96 10.7143 16.96 10.208V4.79199C16.96 4.28575 16.5492 3.875 16.043 3.875H7.50098Z"
    fill="currentColor"
  />
</svg>

<svg xmlns="http://www.w3.org/2000/svg" width="20" height="20" fill="none" data-fui-icon="true" viewBox="0 0 20 20"><path fill="currentColor" d="M16.043 2.375a2.417 2.417 0 0 1 2.417 2.417v5.416a2.417 2.417 0 0 1-2.417 2.417h-.917v.917a2.416 2.416 0 0 1-2.416 2.416H8.946l-3.58 1.99a.75.75 0 0 1-1.115-.656v-1.334H3.96a2.417 2.417 0 0 1-2.417-2.416V8.125A2.42 2.42 0 0 1 3.96 5.708h1.125v-.916a2.417 2.417 0 0 1 2.416-2.417zM3.96 7.208a.92.92 0 0 0-.917.917v5.417c0 .506.411.916.917.916h1.041a.75.75 0 0 1 .75.75v.809l2.636-1.464a.75.75 0 0 1 .364-.095h3.959c.506 0 .916-.41.916-.916v-1.629l-.002-.038.002-.04v-3.71a.917.917 0 0 0-.916-.917zm4.322 5.147a.78.78 0 1 1 0 1.56.78.78 0 0 1 0-1.56m.088-4.442c1.005 0 1.808.821 1.808 1.818 0 .82-.541 1.246-.852 1.457l-.118.091a.496.496 0 0 0-.168.317.75.75 0 0 1-1.483-.222c.114-.76.561-1.178.925-1.426l.122-.092A.4.4 0 0 0 8.66 9.8l.013-.022a.313.313 0 0 0-.303-.364.314.314 0 0 0-.308.318.75.75 0 0 1-1.5 0c0-.997.803-1.818 1.808-1.818m-.869-4.038a.917.917 0 0 0-.916.917v.916h6.125a2.417 2.417 0 0 1 2.416 2.417v3h.917c.506 0 .917-.41.917-.917V4.792a.917.917 0 0 0-.917-.917z"/></svg>
